img/applepay.svg

<?xml version="1.0" encoding="UTF-8"?>
<svg width="166px" height="42px" viewBox="0 0 166 42" version="1.1" xmlns="http://www.w3.org/2000/svg" xmlns:xlink="http://www.w3.org/1999/xlink">
    <!-- Generator: Sketch 41.2 (35397) - http://www.bohemiancoding.com/sketch -->
    <title>applepay</title>
    <desc>Created with Sketch.</desc>
    <defs></defs>
    <g id="Page-1" stroke="none" stroke-width="1" fill="none" fill-rule="evenodd">
        <g id="Desktop-HD" transform="translate(-810.000000, -1606.000000)">
            <g id="Group-3" transform="translate(370.000000, 1542.000000)">
                <g id="applepay" transform="translate(440.000000, 64.000000)">
                    <path d="M166,5.87556409 C166,5.64973596 166,5.42592415 165.998008,5.20211234 C165.998008,5.01459434 165.994023,4.82506001 165.990038,4.63552568 C165.980076,4.22419587 165.954175,3.80883341 165.88245,3.40153625 C165.810724,2.98819011 165.691181,2.60307249 165.501905,2.22803649 C165.314621,1.85904945 165.073543,1.52232357 164.784648,1.22995679 C164.495753,0.937590014 164.161033,0.691598656 163.796428,0.504080653 C163.425845,0.312530005 163.047293,0.191550648 162.638855,0.116946711 C162.236394,0.0443590975 161.825964,0.0201632261 161.419519,0.00806529045 C161.232235,0.00403264522 161.044951,0.00201632261 160.85966,0.00201632261 C160.638506,0 160.415359,0 160.194205,0 L5.80468809,0 C5.58353393,0 5.36237976,0 5.14122559,0.00201632261 C4.95394188,0.00201632261 4.76665818,0.00403264522 4.57937447,0.00806529045 C4.17492135,0.0201632261 3.76249872,0.0443590975 3.36203036,0.116946711 C2.95359248,0.191550648 2.57304793,0.312530005 2.20246527,0.504080653 C1.83785975,0.691598656 1.50513231,0.937590014 1.21623723,1.22995679 C0.927342147,1.52232357 0.684271801,1.85904945 0.498980472,2.22803649 C0.309704384,2.60307249 0.190161591,2.98819011 0.116443535,3.40153625 C0.0447178595,3.80883341 0.020809301,4.22419587 0.00885502169,4.63552568 C0.00487026193,4.82506001 0.00287788205,5.01459434 0.000885502169,5.20211234 C-0.00110687771,5.42592415 0.000885502169,5.64973596 0.000885502169,5.87556409 L0.000885502169,36.1244359 C0.000885502169,36.350264 -0.00110687771,36.5740759 0.000885502169,36.7978877 C0.00287788205,36.987422 0.00487026193,37.17494 0.00885502169,37.3644743 C0.020809301,37.7758041 0.0447178595,38.1891503 0.116443535,38.5964474 C0.190161591,39.0118099 0.309704384,39.3949112 0.498980472,39.7719635 C0.684271801,40.1409506 0.927342147,40.4756601 1.21623723,40.7680269 C1.50513231,41.06241 1.83785975,41.3084013 2.20246527,41.493903 C2.57304793,41.68747 2.95359248,41.8084494 3.36203036,41.881037 C3.76249872,41.9556409 4.17492135,41.9778205 4.57937447,41.9919347 C4.76665818,41.993951 4.95394188,41.9979837 5.14122559,41.9979837 C5.36237976,42 5.58353393,42 5.80468809,42 L160.194205,42 C160.415359,42 160.638506,42 160.85966,41.9979837 C161.044951,41.9979837 161.232235,41.993951 161.419519,41.9919347 C161.825964,41.9778205 162.236394,41.9556409 162.638855,41.881037 C163.047293,41.8084494 163.425845,41.68747 163.796428,41.493903 C164.161033,41.3084013 164.495753,41.06241 164.784648,40.7680269 C165.073543,40.4756601 165.314621,40.1409506 165.501905,39.7719635 C165.691181,39.3949112 165.810724,39.0118099 165.88245,38.5964474 C165.954175,38.1891503 165.980076,37.7758041 165.990038,37.3644743 C165.994023,37.17494 165.998008,36.987422 165.998008,36.7978877 C166,36.5740759 166,36.350264 166,36.1244359 L166,5.87556409 Z" id="Fill-1" fill="#181A20"></path>
                    <path d="M106.247125,16.26 L103.487125,23.764 C103.317125,24.216 103.155125,24.674 103.007125,25.116 C102.937125,25.34 102.869125,25.55 102.801125,25.75 L102.751125,25.75 C102.685125,25.54 102.615125,25.322 102.539125,25.094 C102.397125,24.654 102.241125,24.222 102.083125,23.808 L99.1331247,16.26 L97.5551247,16.26 L101.775125,27.114 C101.887125,27.376 101.905125,27.494 101.905125,27.544 C101.905125,27.558 101.897125,27.646 101.773125,27.978 C101.511125,28.626 101.207125,29.188 100.879125,29.642 C100.541125,30.102 100.231125,30.478 99.9531247,30.752 C99.6351247,31.074 99.3031247,31.336 98.9671247,31.536 C98.6231247,31.738 98.3091247,31.902 98.0311247,32.026 L97.8711247,32.098 L98.3851247,33.348 L98.5471247,33.286 C98.6831247,33.236 98.9351247,33.122 99.3171247,32.936 C99.6991247,32.746 100.127125,32.444 100.583125,32.04 C100.971125,31.698 101.329125,31.292 101.647125,30.838 C101.959125,30.39 102.271125,29.866 102.575125,29.282 C102.879125,28.7 103.183125,28.038 103.477125,27.312 C103.771125,26.584 104.091125,25.768 104.417125,24.892 L107.825125,16.26 L106.247125,16.26 Z M94.7091247,24.23 C94.7091247,24.388 94.6691247,24.604 94.5971247,24.864 C94.5071247,25.136 94.3751247,25.402 94.2011247,25.656 C94.0291247,25.91 93.8131247,26.14 93.5571247,26.34 C93.3011247,26.544 92.9971247,26.706 92.6531247,26.826 C92.3071247,26.946 91.9071247,27.006 91.4651247,27.006 C91.1991247,27.006 90.9371247,26.962 90.6871247,26.874 C90.4391247,26.786 90.2191247,26.656 90.0331247,26.482 C89.8431247,26.31 89.6911247,26.084 89.5711247,25.816 C89.4551247,25.548 89.3971247,25.214 89.3971247,24.826 C89.3971247,24.194 89.5671247,23.678 89.9011247,23.302 C90.2471247,22.912 90.6911247,22.612 91.2191247,22.41 C91.7591247,22.202 92.3571247,22.066 93.0011247,22.002 C93.5231247,21.954 94.0351247,21.928 94.5211247,21.928 C94.5851247,21.928 94.6451247,21.928 94.7091247,21.93 L94.7091247,24.23 Z M96.2111247,26.536 C96.1951247,26.08 96.1871247,25.618 96.1871247,25.16 L96.1871247,20.658 C96.1871247,20.124 96.1331247,19.58 96.0271247,19.038 C95.9211247,18.486 95.7131247,17.98 95.4151247,17.532 C95.1131247,17.08 94.6931247,16.708 94.1671247,16.424 C93.6411247,16.142 92.9571247,15.998 92.1331247,15.998 C91.5311247,15.998 90.9431247,16.076 90.3891247,16.23 C89.8291247,16.386 89.2811247,16.648 88.7571247,17.008 L88.6371247,17.09 L89.1351247,18.258 L89.3171247,18.138 C89.6991247,17.878 90.1291247,17.674 90.5991247,17.528 C91.0651247,17.384 91.5411247,17.31 92.0171247,17.31 C92.6331247,17.31 93.1251247,17.422 93.4751247,17.642 C93.8311247,17.866 94.1011247,18.14 94.2751247,18.464 C94.4551247,18.796 94.5731247,19.15 94.6251247,19.518 C94.6811247,19.9 94.7091247,20.242 94.7091247,20.536 L94.7091247,20.666 C92.5171247,20.656 90.8031247,21.022 89.6671247,21.754 C88.4731247,22.522 87.8671247,23.618 87.8671247,25.004 C87.8671247,25.404 87.9391247,25.806 88.0811247,26.204 C88.2251247,26.608 88.4411247,26.968 88.7271247,27.276 C89.0131247,27.586 89.3811247,27.842 89.8231247,28.032 C90.2651247,28.224 90.7831247,28.32 91.3611247,28.32 C91.8191247,28.32 92.2491247,28.258 92.6391247,28.144 C93.0271247,28.03 93.3771247,27.874 93.6851247,27.684 C93.9871247,27.494 94.2591247,27.282 94.4891247,27.052 C94.5931247,26.948 94.6831247,26.844 94.7711247,26.74 L94.8291247,26.74 L94.9651247,28.056 L96.3891247,28.056 L96.3511247,27.846 C96.2731247,27.426 96.2271247,26.986 96.2111247,26.536 L96.2111247,26.536 Z M84.7651247,19.09 C84.0051247,19.726 82.9311247,20.05 81.5671247,20.05 C81.1931247,20.05 80.8371247,20.032 80.5131247,20.002 C80.2431247,19.976 79.9951247,19.934 79.7691247,19.878 L79.7691247,12.99 C79.9651247,12.954 80.2071247,12.92 80.4911247,12.89 C80.8511247,12.85 81.2851247,12.83 81.7831247,12.83 C82.3971247,12.83 82.9651247,12.904 83.4711247,13.05 C83.9711247,13.194 84.4091247,13.408 84.7711247,13.686 C85.1251247,13.96 85.4051247,14.32 85.5991247,14.75 C85.7931247,15.186 85.8911247,15.706 85.8911247,16.296 C85.8911247,17.522 85.5111247,18.46 84.7651247,19.09 L84.7651247,19.09 Z M86.1251247,12.904 C85.6611247,12.456 85.0671247,12.11 84.3531247,11.872 C83.6471247,11.638 82.7971247,11.518 81.8291247,11.518 C81.1631247,11.518 80.5371247,11.55 79.9751247,11.616 C79.4191247,11.678 78.9031247,11.75 78.4391247,11.83 L78.2911247,11.856 L78.2911247,28.056 L79.7691247,28.056 L79.7691247,21.232 C80.2671247,21.318 80.8371247,21.362 81.4671247,21.362 C82.3031247,21.362 83.0871247,21.254 83.7971247,21.044 C84.5151247,20.832 85.1431247,20.504 85.6651247,20.068 C86.1891247,19.634 86.6111247,19.088 86.9131247,18.446 C87.2171247,17.806 87.3711247,17.05 87.3711247,16.202 C87.3711247,15.5 87.2591247,14.868 87.0431247,14.324 C86.8251247,13.78 86.5171247,13.304 86.1251247,12.904 L86.1251247,12.904 Z M68.7331247,12.904 C69.3651247,12.134 69.7931247,11.066 69.6771247,10 C68.7611247,10.038 67.6511247,10.612 66.9991247,11.38 C66.4091247,12.058 65.8971247,13.148 66.0391247,14.194 C67.0571247,14.272 68.0971247,13.674 68.7331247,12.904 L68.7331247,12.904 Z M71.3651247,19.664 C71.3451247,17.362 73.2451247,16.252 73.3331247,16.198 C72.2611247,14.638 70.5991247,14.422 70.0071247,14.398 C68.5911247,14.256 67.2411247,15.232 66.5231247,15.232 C65.8051247,15.232 64.6991247,14.42 63.5211247,14.444 C61.9771247,14.466 60.5551247,15.342 59.7571247,16.724 C58.1591247,19.514 59.3531247,23.634 60.9151247,25.892 C61.6791247,26.994 62.5891247,28.236 63.7871247,28.192 C64.9411247,28.146 65.3731247,27.446 66.7671247,27.446 C68.1571247,27.444 68.5511247,28.19 69.7671247,28.168 C71.0051247,28.14 71.7931247,27.042 72.5531247,25.93 C73.4271247,24.652 73.7871247,23.408 73.8071247,23.346 C73.7831247,23.33 71.3931247,22.42 71.3651247,19.664 L71.3651247,19.664 Z" id="Fill-3" fill="#FFFFFF"></path>
                </g>
            </g>
        </g>
    </g>
</svg>

<svg width="166" height="42" viewBox="0 0 166 42" xmlns="http://www.w3.org/2000/svg"><title>applepay</title><g fill="none" fill-rule="evenodd"><path d="M166 5.876c0-.226 0-.45-.002-.674 0-.187-.004-.377-.008-.566a8.277 8.277 0 0 0-.108-1.234 3.982 3.982 0 0 0-1.098-2.172 3.9 3.9 0 0 0-.988-.726 4.063 4.063 0 0 0-1.157-.387 8.254 8.254 0 0 0-1.22-.11 26.053 26.053 0 0 0-.56-.005C160.64 0 160.415 0 160.194 0H5.804c-.22 0-.442 0-.663.002a26.1 26.1 0 0 0-.56.006 8.227 8.227 0 0 0-1.218.11c-.408.074-.79.195-1.16.386A3.932 3.932 0 0 0 .5 2.228c-.19.375-.31.76-.383 1.174A8.55 8.55 0 0 0 .01 4.636c-.005.19-.007.38-.01.566v31.596c.003.19.005.377.01.566.01.412.035.825.106 1.232.074.416.194.8.383 1.176.184.37.427.704.716.996a3.954 3.954 0 0 0 2.146 1.113c.4.075.813.097 1.217.11A72.772 72.772 0 0 0 5.804 42l154.39.002c.22 0 .444 0 .665-.002.185 0 .372-.004.56-.006a8.257 8.257 0 0 0 1.22-.11 3.942 3.942 0 0 0 2.862-2.11c.19-.377.31-.76.38-1.176a8.25 8.25 0 0 0 .108-1.232c.004-.19.008-.377.008-.566.002-.224.002-.448.002-.674V5.876z" fill="#181A20"/><path d="M106.247 16.26l-2.76 7.504c-.17.452-.332.91-.48 1.352-.07.224-.138.434-.206.634h-.05c-.065-.21-.135-.428-.21-.656a26.11 26.11 0 0 0-.457-1.286l-2.95-7.548h-1.578l4.22 10.854c.112.262.13.38.13.43 0 .014-.008.102-.132.434a7.935 7.935 0 0 1-.894 1.664 9.46 9.46 0 0 1-.927 1.11 4.97 4.97 0 0 1-.986.784 9.63 9.63 0 0 1-.936.49l-.16.072.515 1.25.162-.062c.136-.05.388-.164.77-.35.382-.19.81-.492 1.266-.896a6.804 6.804 0 0 0 1.064-1.202c.312-.448.624-.972.928-1.556.304-.582.608-1.244.902-1.97.294-.728.614-1.544.94-2.42l3.408-8.632h-1.578zM94.71 24.23c0 .158-.04.374-.113.634a3.157 3.157 0 0 1-1.04 1.476c-.256.204-.56.366-.904.486-.346.12-.746.18-1.188.18-.266 0-.528-.044-.778-.132a1.854 1.854 0 0 1-1.116-1.058c-.115-.268-.173-.602-.173-.99 0-.632.17-1.148.504-1.524.347-.39.79-.69 1.32-.892a6.835 6.835 0 0 1 1.78-.408 16.714 16.714 0 0 1 1.71-.072v2.3zm1.5 2.306a39.38 39.38 0 0 1-.023-1.376v-4.502c0-.534-.054-1.078-.16-1.62a4.1 4.1 0 0 0-.612-1.506 3.433 3.433 0 0 0-1.248-1.108c-.526-.282-1.21-.426-2.034-.426a6.52 6.52 0 0 0-1.744.232 5.492 5.492 0 0 0-1.633.778l-.12.082.498 1.168.182-.12a4.8 4.8 0 0 1 1.282-.61 4.796 4.796 0 0 1 1.417-.218c.616 0 1.108.112 1.458.332.356.224.626.498.8.822.18.332.298.686.35 1.054.056.382.084.724.084 1.018v.13c-2.193-.01-3.907.356-5.043 1.088-1.194.768-1.8 1.864-1.8 3.25 0 .4.072.802.214 1.2.145.404.36.764.647 1.072.286.31.654.566 1.096.756.442.192.96.288 1.538.288.46 0 .89-.062 1.28-.176a4.292 4.292 0 0 0 2.13-1.404h.06l.135 1.316h1.424l-.04-.21a8.934 8.934 0 0 1-.14-1.31zM84.766 19.09c-.76.636-1.834.96-3.198.96a11.5 11.5 0 0 1-1.054-.048 5.15 5.15 0 0 1-.744-.124V12.99c.195-.036.437-.07.72-.1.36-.04.795-.06 1.293-.06.614 0 1.182.074 1.688.22.5.144.94.358 1.3.636.355.274.635.634.83 1.064.193.436.29.956.29 1.546 0 1.226-.38 2.164-1.125 2.794zm1.36-6.186c-.464-.448-1.058-.794-1.772-1.032-.706-.234-1.556-.354-2.524-.354-.667 0-1.293.032-1.855.098-.556.062-1.072.134-1.536.214l-.15.026v16.2h1.48v-6.824c.497.086 1.067.13 1.697.13.836 0 1.62-.108 2.33-.318a5.17 5.17 0 0 0 1.868-.976c.524-.434.946-.98 1.248-1.622.304-.64.458-1.396.458-2.244 0-.702-.11-1.334-.327-1.878a4.29 4.29 0 0 0-.918-1.42zm-17.392 0c.632-.77 1.06-1.838.944-2.904-.916.038-2.026.612-2.678 1.38-.59.678-1.103 1.768-.96 2.814 1.017.078 2.057-.52 2.693-1.29zm2.632 6.76c-.02-2.302 1.88-3.412 1.968-3.466-1.072-1.56-2.734-1.776-3.326-1.8-1.416-.142-2.766.834-3.484.834s-1.824-.812-3.002-.788c-1.543.022-2.965.898-3.763 2.28-1.598 2.79-.404 6.91 1.158 9.168.764 1.102 1.674 2.344 2.872 2.3 1.154-.046 1.586-.746 2.98-.746 1.39-.002 1.784.744 3 .722 1.238-.028 2.026-1.126 2.786-2.238.874-1.278 1.234-2.522 1.254-2.584-.024-.016-2.414-.926-2.442-3.682z" fill="#FFF"/></g></svg>
